!!!OTL: WER KANNS VERDENKEN MICH
!!!ARE: Europa, Mitteleuropa, Deutschland, Hessen, Nassau, Hennethal
!!!SCT: E1733
!!!YEM: Copyright 1995, estate of Helmut Schaffrath.
**kern
*ICvox
*Ivox
*M4/4
*k[f#]
*G:
{4d
=1
4g
4b
8b
8a
4a
=2
2g}
{2a
=3
4b
4dd
8dd
8cc
4b
=4
2a
2r}
=5
{4.dd
8cc
8b
8a
4g
=6
4ee
4ee
2dd}
=7
{4dd
8dd
8cc
4b
4b
=8
8b
8a
4a
2g}
=9
{4cc
4ee
4dd
4b
=10
8b
8a
4a
4g}
==
!!!AGN: Scherz - Lied
!!!ONB: ESAC (Essen Associative Code) Database: ERK3
!!!AMT: simple quadruple
!!!AIN: vox
!!!EED: Helmut Schaffrath
!!!EEV: 1.0
*-
